src/topics/icons/google-cloud-platform.svg

<svg height="227" preserveAspectRatio="xMidYMid" viewBox="0 0 256 227" width="256" xmlns="http://www.w3.org/2000/svg"><path d="m81.5576061 190.482332-44.9394578-77.835457 44.9394578-77.8357855h89.8759689l44.939131 77.8357855-44.939131 77.835457z" fill="#cac9c2"/><path d="m127.996726 148.17555c-19.314578 0-35.0281326-15.713882-35.0281326-35.028133 0-19.3139234 15.7135546-35.0278057 35.0281326-35.0278057 19.313924 0 35.027479 15.7138823 35.027479 35.0278057 0 19.314251-15.713555 35.028133-35.027479 35.028133" fill="#fff"/><g transform="translate(25.207161)"><path d="m173.257657 8.7164399c-2.7538-4.76971867-9.513575-8.67224553-15.021831-8.67224553h-110.7429155c-5.507601 0-12.2677033 3.90252686-15.0211765 8.67224553l-32.35879282 56.0476317c-.25403581 3.6209923.41051662 7.403376 2.00642455 10.1673248l21.90404087 37.4499846 39.1018722-67.5522455h123.5900562c2.923376 0 6.195724 1.1064962 9.039223 2.8513555z" fill="#5072aa"/><path d="m1.51963171 62.3111202-1.41585677 2.4529514c-.25436317 3.6209923.41051662 7.403376 2.00642455 10.1673248l21.90404091 37.4499846 11.6532379-20.1323375z" fill="#4d6796"/><g fill="#fff"><path d="m50.3472123 28.8373197c-3.7264041 0-6.7584655-3.0320614-6.7584655-6.7584655 0-3.7267314 3.0320614-6.7581381 6.7584655-6.7581381 3.7270588 0 6.7581381 3.0314067 6.7581381 6.7581381 0 3.7264041-3.0310793 6.7584655-6.7581381 6.7584655"/><path d="m161.088818 22.0788542c0 3.4563274-2.801595 6.2579233-6.257595 6.2579233s-6.258251-2.8015959-6.258251-6.2579233c0-3.4563273 2.802251-6.2579233 6.258251-6.2579233s6.257595 2.801596 6.257595 6.2579233z"/></g></g><g transform="translate(138.475703 44.521739)"><path d="m115.361391 60.1023836-32.8753757-56.94363168c-2.8434987-1.74485934-6.1158465-2.8513555-9.0392225-2.8513555h-44.568225l38.5365115 67.92511508-61.01180564 107.7933505c-1.34252686 2.324297-3.63867008 4.439079-6.27527366 5.999632h44.8392839c5.5082557 0 12.2680307-3.902527 15.0218312-8.671591l55.3722759-95.906701c2.754456-4.7697186 2.754456-12.5747723 0-17.3448184" fill="#cc4232"/><path d="m83.9699642 5.71285934-1.4738005-2.55410742c-2.8421893-1.74485934-6.1138824-2.8513555-9.0382404-2.8513555h-44.5678977l11.6011867 20.44791818z" fill="#b23f33"/><g fill="#fff"><path d="m41.5626803 165.459806c-3.7270588 0-6.7584655-3.031734-6.7584655-6.758466 0-3.726731 3.0314067-6.758138 6.7584655-6.758138 3.7264041 0 6.7584655 3.031407 6.7584655 6.758138 0 3.726732-3.0320614 6.758466-6.7584655 6.758466"/><path d="m94.157913 75.3838159c-3.726404 0-6.7584654-3.0314067-6.7584654-6.7581382 0-3.726404 3.0320614-6.7584654 6.7584654-6.7584654 3.7270589 0 6.758138 3.0320614 6.758138 6.7584654 0 3.7267315-3.0310791 6.7581382-6.758138 6.7581382"/></g></g><g transform="translate(0 64.491049)"><path d="m89.1842455 116.198465-61.8577186-105.7581172c-1.595908-2.76394882-2.2604604-6.54633245-2.0064246-10.16732478l-23.01348337 39.86005118c-2.75380052 4.770046-2.75380052 12.5750997 0 17.3448184l55.37227617 95.9067004c2.7534732 4.769064 9.5135755 8.671591 15.0211765 8.671591h65.9036314c2.636604-1.560552 4.932747-3.675335 6.275274-5.999632l22.558772-39.858087z" fill="#ecb02a"/><path d="m134.85733 162.056184h3.832471c2.63693-1.560552 4.932092-3.675335 6.274291-5.999632l22.560082-39.858087h-24.024061z" fill="#c79732"/><g fill="#fff"><path d="m75.5543734 145.490496c-3.7264041 0-6.7584655-3.031734-6.7584655-6.758465 0-3.726732 3.0320614-6.758138 6.7584655-6.758138 3.7270588 0 6.7581381 3.031406 6.7581381 6.758138 0 3.726731-3.0310793 6.758465-6.7581381 6.758465"/><path d="m22.8648593 55.4145064c-3.7264041 0-6.7584654-3.0314067-6.7584654-6.7581381 0-3.7264041 3.0320613-6.7584655 6.7584654-6.7584655 3.7267315 0 6.7584655 3.0320614 6.7584655 6.7584655 0 3.7267314-3.031734 6.7581381-6.7584655 6.7581381"/></g></g></svg>

<?xml version="1.0" encoding="UTF-8" standalone="no" ?>
<svg width="256px" height="227px" viewBox="0 0 256 227" version="1.1" xmlns="http://www.w3.org/2000/svg" xmlns:xlink="http://www.w3.org/1999/xlink" preserveAspectRatio="xMidYMid">
    <g>
        <path d="M81.5576061,190.482332 L36.6181483,112.646875 L81.5576061,34.8110895 L171.433575,34.8110895 L216.372706,112.646875 L171.433575,190.482332 L81.5576061,190.482332" fill="#CAC9C2"></path>
        <path d="M127.996726,148.17555 C108.682148,148.17555 92.9685934,132.461668 92.9685934,113.147417 C92.9685934,93.8334936 108.682148,78.1196113 127.996726,78.1196113 C147.31065,78.1196113 163.024205,93.8334936 163.024205,113.147417 C163.024205,132.461668 147.31065,148.17555 127.996726,148.17555" fill="#FFFFFF"></path>
        <g transform="translate(25.207161, 0.000000)">
            <path d="M173.257657,8.7164399 C170.503857,3.94672123 163.744082,0.0441943734 158.235826,0.0441943734 L47.4929105,0.0441943734 C41.9853095,0.0441943734 35.2252072,3.94672123 32.471734,8.7164399 L0.112941176,64.7640716 C-0.141094629,68.3850639 0.523457801,72.1674476 2.11936573,74.9313964 L24.0234066,112.381381 L63.1252788,44.8291355 L186.715335,44.8291355 C189.638711,44.8291355 192.911059,45.9356317 195.754558,47.680491 L173.257657,8.7164399" fill="#5072AA"></path>
            <path d="M1.51963171,62.3111202 L0.103774936,64.7640716 C-0.150588235,68.3850639 0.51429156,72.1674476 2.11019949,74.9313964 L24.0142404,112.381381 L35.6674783,92.2490435 L1.51963171,62.3111202" fill="#4D6796"></path>
            <path d="M50.3472123,28.8373197 C46.6208082,28.8373197 43.5887468,25.8052583 43.5887468,22.0788542 C43.5887468,18.3521228 46.6208082,15.3207161 50.3472123,15.3207161 C54.0742711,15.3207161 57.1053504,18.3521228 57.1053504,22.0788542 C57.1053504,25.8052583 54.0742711,28.8373197 50.3472123,28.8373197" fill="#FFFFFF"></path>
            <path d="M161.088818,22.0788542 C161.088818,25.5351816 158.287223,28.3367775 154.831223,28.3367775 C151.375223,28.3367775 148.572972,25.5351816 148.572972,22.0788542 C148.572972,18.6225269 151.375223,15.8209309 154.831223,15.8209309 C158.287223,15.8209309 161.088818,18.6225269 161.088818,22.0788542 L161.088818,22.0788542 Z" fill="#FFFFFF"></path>
        </g>
        <g transform="translate(138.475703, 44.521739)">
            <path d="M115.361391,60.1023836 L82.4860153,3.15875192 C79.6425166,1.41389258 76.3701688,0.307396419 73.4467928,0.307396419 L28.8785678,0.307396419 L67.4150793,68.2325115 L6.40327366,176.025862 C5.0607468,178.350159 2.76460358,180.464941 0.128,182.025494 L44.9672839,182.025494 C50.4755396,182.025494 57.2353146,178.122967 59.9891151,173.353903 L115.361391,77.447202 C118.115847,72.6774834 118.115847,64.8724297 115.361391,60.1023836" fill="#CC4232"></path>
            <path d="M83.9699642,5.71285934 L82.4961637,3.15875192 C79.6539744,1.41389258 76.3822813,0.307396419 73.4579233,0.307396419 L28.8900256,0.307396419 L40.4912123,20.7553146 L83.9699642,5.71285934" fill="#B23F33"></path>
            <path d="M41.5626803,165.459806 C37.8356215,165.459806 34.8042148,162.428072 34.8042148,158.70134 C34.8042148,154.974609 37.8356215,151.943202 41.5626803,151.943202 C45.2890844,151.943202 48.3211458,154.974609 48.3211458,158.70134 C48.3211458,162.428072 45.2890844,165.459806 41.5626803,165.459806" fill="#FFFFFF"></path>
            <path d="M94.157913,75.3838159 C90.431509,75.3838159 87.3994476,72.3524092 87.3994476,68.6256777 C87.3994476,64.8992737 90.431509,61.8672123 94.157913,61.8672123 C97.8849719,61.8672123 100.916051,64.8992737 100.916051,68.6256777 C100.916051,72.3524092 97.8849719,75.3838159 94.157913,75.3838159" fill="#FFFFFF"></path>
        </g>
        <g transform="translate(0.000000, 64.491049)">
            <path d="M89.1842455,116.198465 L27.3265269,10.4403478 C25.7306189,7.67639898 25.0660665,3.89401535 25.3201023,0.273023018 L2.30661893,40.1330742 C-0.447181586,44.9031202 -0.447181586,52.7081739 2.30661893,57.4778926 L57.6788951,153.384593 C60.4323683,158.153657 67.1924706,162.056184 72.7000716,162.056184 L138.603703,162.056184 C141.240307,160.495632 143.53645,158.380849 144.878977,156.056552 L167.437749,116.198465 L89.1842455,116.198465" fill="#ECB02A"></path>
            <path d="M134.85733,162.056184 L138.689801,162.056184 C141.326731,160.495632 143.621893,158.380849 144.964092,156.056552 L167.524174,116.198465 L143.500113,116.198465 L134.85733,162.056184" fill="#C79732"></path>
            <path d="M75.5543734,145.490496 C71.8279693,145.490496 68.7959079,142.458762 68.7959079,138.732031 C68.7959079,135.005299 71.8279693,131.973893 75.5543734,131.973893 C79.2814322,131.973893 82.3125115,135.005299 82.3125115,138.732031 C82.3125115,142.458762 79.2814322,145.490496 75.5543734,145.490496" fill="#FFFFFF"></path>
            <path d="M22.8648593,55.4145064 C19.1384552,55.4145064 16.1063939,52.3830997 16.1063939,48.6563683 C16.1063939,44.9299642 19.1384552,41.8979028 22.8648593,41.8979028 C26.5915908,41.8979028 29.6233248,44.9299642 29.6233248,48.6563683 C29.6233248,52.3830997 26.5915908,55.4145064 22.8648593,55.4145064" fill="#FFFFFF"></path>
        </g>
    </g>
</svg>
